!!!OTL: Der Lenz ist gekommen.
!!!OTL-incipit:DER LENZ IST ANGEKOMMEN
!!!COM: J. Beer
!!!ARE: Europa, Mitteleuropa, Deutschland
!!!SCT: F0360
!!!TXL: @@DE
!!!YEM: Copyright 1995, estate of Helmut Schaffrath.
**kern	**text
*ICvox	*
*clefG2	*
*M6/8	*
*k[b-e-]	*
*B-:	*
!LO:TX:a:t=Fröhlich.	!
!LO:TX:a:t=Ʒweiſtimmig ohne, einſtimmig mit Klavierbegleitung.	!
!LO:TX:a:t=P:only the highest voice encoded:problem	!
{8f	1._Der
=1	=1
4b-	Lenʒ
8cc	iſt
4dd	an-
8ee-	-ge-
=2	=2
4.ff	-kommen!
4dd}	.
{8ff	habt
=3	=3
4ff	ihr
8ee-	es
4dd	nicht
8cc	vernommen?
=4	=4
4.dd	.
8b-	.
8r}	.
{8cc	Es
=5	=5
4cc	ſa-
8cc	-gen's
(8ccL	euch
8b-J)	.
8g	die
=6	=6
4a	Vö-
8dd	-ge-
4cc}	-lein,
{8cc	es
=7	=7
4cc	ſa-
8cc	-gen's
(8ccL	euch
8b-J)	.
8g	die
=8	=8
4a	Blüme-
8dd	.
4cc}	-lein,
{8f	der
=9	=9
4b-/	Lenʒ,
8cc	der
4dd	Lenʒ,
8ee-	der
=10	=10
4ff	Lenʒ
8ff}	iſt
{(8ffL	an-
8ee-J)	.
8dd	-ge-
=11	=11
[4.cc	-kom-
8ccL]	.
8dd	.
8ccJ	.
=12	=12
4b-	-men.
8r	.
4r}	.
==	==
!!!AGN: Jugend - Lied, Jahreszeiten, Fruehling
!!!ONB: ESAC (Essen Associative Code) Database: FINK
!!!AMT: compound duple
!!!AIN: vox
!!!EED: Helmut Schaffrath
!!!EEV: 1.0
!!Text: Volkslied
!!!source: Musikalischer Hausschatz der Deutschen. Eine Sammlung von über 1000 Liedern und Gesängen mit Singstimmen und Klavierbegleitung. Leipzig, Litterarisches Verlags-Haus.
!!!page: 213
!!!GTL: Jugendlieder
!!!URL-scan: https://www.digitale-sammlungen.de/en/view/bsb11144622?page=210,211
!!!ENC: Anna Maria Matuszewska
!!!EEV: 2024/30/07
*-	*-
